X: 1203
T: Jenny dang the Weaver/Musselburgh
P: Jenny dang the Weaver
C:Orpheus Caledonius, 1733 (here from Gow)
R:Reel (8x32)
B:RSCDS 12-3
Z:Anselm Lingnau <anselm@strathspey.org>
M:C|
L:1/8
K:D
g|"D"fAAA "A"ABAg|"D"fAAA "A"f2ef|"Bm"dBBB "G"BcdB|"D"ABde "A"f2eg|
  "D"fAAA "A"ABAg|"D"fAAA "A"f2ef|"Bm"dBBB "G"BcdB|"D"ABde "A"f2ed|
  "D"defd "Em"efge|"D"defd "Bm"e2dB|"D"defd "A"efge|"D"faAa "A"f2ed|
  "D"defd "Em"efge|"D"defd "Bm"e2dB|"D"defd "A"efge|"D"faAa "A"f2ed|]
%%center Book12/1203-Jenny_dang_the_Weaver_Musselburgh-AL.abc

%%sep 1 1 500
%%sep 1 1 500

